svgs/duotone/hand-peace.svg

<svg xmlns="http://www.w3.org/2000/svg" viewBox="0 0 512 512"><!--! Font Awesome Pro 6.3.0 by @fontawesome - https://fontawesome.com License - https://fontawesome.com/license (Commercial License) Copyright 2023 Fonticons, Inc. --><defs><style>.fa-secondary{opacity:.4}</style></defs><path class="fa-primary" d="M416 224c-17.69 0-32 14.33-32 32v64c0 17.67 14.31 32 32 32s32-14.33 32-32V256C448 238.3 433.7 224 416 224zM320 192c-17.69 0-32 14.33-32 32v96c0 17.67 14.31 32 32 32s32-14.33 32-32V224C352 206.3 337.7 192 320 192z"/><path class="fa-secondary" d="M256 287.4V32c0-17.67-14.31-32-32-32S192 14.33 192 32v216.3C218.7 248.4 243.7 263.1 256 287.4zM170.8 251.2c2.514-.7734 5.043-1.027 7.57-1.516L93.41 51.39C88.21 39.25 76.34 31.97 63.97 31.97c-20.97 0-31.97 18.01-31.97 32.04c0 4.207 .8349 8.483 2.599 12.6l81.97 191.3L170.8 251.2zM368 361.9C356.3 375.3 339.2 384 320 384c-27.41 0-50.62-17.32-59.73-41.55c-7.059 21.41-23.9 39.23-47.08 46.36l-47.96 14.76c-1.562 .4807-3.147 .7105-4.707 .7105c-6.282 0-12.18-3.723-14.74-9.785c-.8595-2.038-1.264-4.145-1.264-6.213c0-6.79 4.361-13.16 11.3-15.3l46.45-14.29c17.2-5.293 29.76-20.98 29.76-38.63c0-34.19-32.54-40.07-40.02-40.07c-3.89 0-7.848 .5712-11.76 1.772l-104 32c-18.23 5.606-28.25 22.21-28.25 38.22c0 4.266 .6825 8.544 2.058 12.67L68.19 419C86.71 474.5 138.7 512 197.2 512H272c82.54 0 151.8-57.21 170.7-134C434.6 381.8 425.6 384 416 384C396.8 384 379.7 375.3 368 361.9z"/></svg>

<svg xmlns="http://www.w3.org/2000/svg" viewBox="0 0 512 512"><!-- Font Awesome Pro 6.0.0-alpha2 by @fontawesome - https://fontawesome.com License - https://fontawesome.com/license (Commercial License) --><defs><style>.fa-secondary{opacity:.4}</style></defs><path d="M256.005 287.41V32C256.005 14.328 241.692 0 224.005 0S192.005 14.328 192.005 32V248.346C218.735 248.371 243.667 263.141 256.005 287.41ZM170.817 251.188C173.331 250.414 175.86 250.16 178.388 249.672L93.411 51.391C88.211 39.253 76.347 31.971 63.972 31.971C43.004 31.971 32 49.976 32 64.014C32 68.221 32.835 72.497 34.599 76.609L116.571 267.879L170.817 251.188ZM368.005 361.926C356.272 375.346 339.229 384 320.005 384C292.593 384 269.388 366.678 260.27 342.451C253.212 363.857 236.372 381.684 213.192 388.812L165.237 403.568C163.675 404.049 162.09 404.279 160.53 404.279C154.247 404.279 148.346 400.556 145.789 394.494V394.494C144.93 392.456 144.525 390.349 144.525 388.281C144.525 381.491 148.886 375.118 155.826 372.983L202.272 358.691C219.474 353.397 232.037 337.711 232.037 320.06C232.037 285.872 199.496 279.994 192.019 279.994C188.129 279.994 184.172 280.565 180.255 281.766L76.255 313.766C58.029 319.371 48.01 335.973 48.01 351.986C48.01 356.252 48.692 360.531 50.067 364.656L68.192 419C86.716 474.541 138.698 512 197.246 512H272.005C354.548 512 423.823 454.787 442.731 377.984C434.575 381.754 425.579 384 416.005 384C396.78 384 379.737 375.346 368.005 361.926Z" class="fa-secondary"/><path d="M416 224C398.312 224 384 238.328 384 256V320C384 337.672 398.312 352 416 352S448 337.672 448 320V256C448 238.328 433.688 224 416 224ZM320 192C302.312 192 288 206.328 288 224V320C288 337.672 302.312 352 320 352S352 337.672 352 320V224C352 206.328 337.688 192 320 192Z" class="fa-primary"/></svg>
